src/components/header/GitHub_Black.svg

<?xml version="1.0" encoding="UTF-8" standalone="no"?>
<svg width="13px" height="13px" viewBox="0 0 13 13" version="1.1" xmlns="http://www.w3.org/2000/svg" xmlns:xlink="http://www.w3.org/1999/xlink">
    <!-- Generator: Sketch 50.2 (55047) - http://www.bohemiancoding.com/sketch -->
    <title>Icon</title>
    <desc>Created with Sketch.</desc>
    <defs>
        <polygon id="path-1" points="0 0 13 0 13 13 0 13"></polygon>
    </defs>
    <g id="Page-1" stroke="none" stroke-width="1" fill="none" fill-rule="evenodd">
        <g id="NEW---hovers-/-animation-/-icons" transform="translate(-1285.000000, -963.000000)">
            <g id="Nav-Icons" transform="translate(1275.000000, 963.000000)">
                <g id="GitHub-Copy" transform="translate(10.000000, 0.000000)">
                    <g id="Icon">
                        <mask id="mask-2" fill="white">
                            <use xlink:href="#path-1"></use>
                        </mask>
                        <g id="Clip-2"></g>
                        <path d="M6.49940145,0 C2.91012615,0 0,2.98377333 0,6.66470142 C0,9.60919842 1.86227324,12.1069272 4.44519476,12.9885989 C4.77040425,13.049559 4.88891617,12.8437674 4.88891617,12.667024 C4.88891617,12.5091004 4.88332975,12.0897438 4.88013751,11.5337384 C3.07213236,11.9363207 2.69065963,10.640202 2.69065963,10.640202 C2.39497836,9.87063146 1.96881427,9.66524901 1.96881427,9.66524901 C1.37864882,9.25202934 2.01350563,9.26021191 2.01350563,9.26021191 C2.66591976,9.30726167 3.00908561,9.94713847 3.00908561,9.94713847 C3.58887627,10.965459 4.53058719,10.6712957 4.90088707,10.5010983 C4.95994352,10.0702861 5.12753614,9.77653193 5.31348415,9.61001668 C3.87019246,9.44186491 2.35268117,8.86990343 2.35268117,6.31612404 C2.35268117,5.58869376 2.60606526,4.99382109 3.02185457,4.52782386 C2.95481752,4.35926296 2.73175972,3.68174635 3.08530035,2.76407138 C3.08530035,2.76407138 3.63117346,2.58487315 4.87295497,3.44731579 C5.39129501,3.29921131 5.9475429,3.2255682 6.50019952,3.22311343 C7.05205807,3.2255682 7.60830596,3.29921131 8.12744406,3.44731579 C9.36842751,2.58487315 9.91310353,2.76407138 9.91310353,2.76407138 C10.2678412,3.68174635 10.0447834,4.35926296 9.9777464,4.52782386 C10.3943338,4.99382109 10.6461217,5.58869376 10.6461217,6.31612404 C10.6461217,8.87644948 9.12621627,9.43981927 7.67813622,9.60469801 C7.9115688,9.81048959 8.11946346,10.2171632 8.11946346,10.8390384 C8.11946346,11.7297109 8.11148286,12.4485494 8.11148286,12.667024 C8.11148286,12.845404 8.22839866,13.0528321 8.55839651,12.9877806 C11.1393229,12.1044725 13,9.60838017 13,6.66470142 C13,2.98377333 10.0894748,0 6.49940145,0" id="Fill-1" fill="#2B2B2B" mask="url(#mask-2)"></path>
                    </g>
                </g>
            </g>
        </g>
    </g>
</svg>

<svg width="13" height="13" xmlns="http://www.w3.org/2000/svg" xmlns:xlink="http://www.w3.org/1999/xlink"><defs><path id="a" d="M0 0h13v13H0z"/></defs><g fill="none" fill-rule="evenodd"><mask id="b" fill="#fff"><use xlink:href="#a"/></mask><path d="M6.5 0C2.91 0 0 2.984 0 6.665c0 2.944 1.862 5.442 4.445 6.324.325.06.444-.145.444-.322 0-.158-.006-.577-.009-1.133-1.808.402-2.19-.894-2.19-.894-.295-.77-.721-.975-.721-.975-.59-.413.045-.405.045-.405.652.047.995.687.995.687.58 1.018 1.522.724 1.892.554.059-.43.227-.724.412-.891-1.443-.168-2.96-.74-2.96-3.294 0-.727.253-1.322.669-1.788-.067-.169-.29-.846.063-1.764 0 0 .546-.18 1.788.683A6.065 6.065 0 0 1 6.5 3.223a6.074 6.074 0 0 1 1.627.224c1.241-.862 1.786-.683 1.786-.683.355.918.132 1.595.065 1.764.416.466.668 1.06.668 1.788 0 2.56-1.52 3.124-2.968 3.289.234.205.441.612.441 1.234 0 .89-.008 1.61-.008 1.828 0 .178.117.386.447.32C11.14 12.105 13 9.609 13 6.666 13 2.984 10.09 0 6.5 0" fill="#2B2B2B" mask="url(#b)"/></g></svg>
